X:1
T:Sans y penser
T:Clement Janequin
T:Source : Livre XXV de 28 chansons nouvelles à 4 parties---Paris---P.Attaingnant---1547. Editor : André Vierendeels (25/07/18) Notes : Original clefs : C1, C3, C4, F4 Original note values have been halved Editorial accidentals above the staff
T:#
T:Sans y penser
T:©
T:©
T:©
T:©
C:Clement Janequin
Z:©
%%score [ 1 [ 2 3 ] 4 ]
L:1/8
Q:1/4=120
M:2/2
K:F
V:1 treble nm="Soprano" snm="S"
V:2 treble-8 nm="Tenor 1" snm="T 1"
V:3 treble-8 nm="Tenor 2" snm="T 2"
V:4 bass nm="Bass" snm="B"
V:1
 z2 G2 GABc | dcBA B2 B2 | A2 D2 DCDE | F2 G2 G2 F2 | G4 z2 B2 | A2 G2 F4 | z2 D2 FEFG | A4 A2 z2 | %8
w: Sans y _ _ _|_ _ _ _ _ pen-|ser ne vou- * * *|* loir le vou-|loir, con-|tre chan- ger|ne fai- re con- tr'e-|chan- ge,|
 z2 D2 FEFG | A2 A2 z2 D2 | GGGG G4 | F4 z2 A2 | B2 B2 A4 | z2 d2 d2 d2 | c2 B2 B2 B2 | A2 A2 G4 | %16
w: ne fai- re con- tr'e-|chan- ge, ne|fai- re con- tr'e- chan-|ge, pour|tout plai- sir,|pour tout plai-|sir mon sou- las|on me chan-|
 F3 G A2 A2 | D4 z2 d2 | dcBA B2 B2 | A2 D2 DCDE | F2 G2 G2 F2 | G4 z2 D2 | DEFG A2 A2 | D4 z2 d2 | %24
w: ge, et me mect|on, et|me _ _ _ _ mect|on en dan- * * *|* ger non cha-|loir, et|me _ _ _ _ mect|on, et|
 dcBA B2 B2 | A2 D2 DCDE | F2 G2 G2 F2 | G8 |] %28
w: me _ _ _ _ mect|on en dan- * * *|* ger non cha-|loir.|
V:2
 z4 z2 G2 | GABc d2 d2 | d2 A2 B2 B2 | c2 c2 d4- | d2 d2 B4 | c4 d2 d2 | dddd d4 | c4 z2 G2 | %8
w: Sans|y _ _ _ _ pen-|ser ne vou- loir|le vou- loir,|_ con- tre|chan- ger ne|fai- re con- tr'e- chan-|ge, ne|
 BABc d4 | c2 z2 z4 | z2 G2 BABc | d4 d2 f2 | d2 B2 f4- | f8 | z2 f2 f2 f2 | e2 d4 c2 | d6 c2 | %17
w: fai- re con- tr'e- chan-|ge,|ne fai- re con- tr'e-|chan- ge, pour|tout plai- sir|_|mon sou- las|on me chan-|ge, et|
 B2 AG A2 A2 | GABc d4- | d2 A2 B2 B2 | c2 c2 d3 c | BA B4 AG | F4 z2 c2 | B3 A/G/ A2 A2 | %24
w: me _ _ _ mect|on _ _ _ _|_ en dan- ger|non cha- loir, _|_ _ _ _ _|* et|me _ _ _ mect|
 GABc d4- | d2 A2 B2 B2 | c2 c2 d4- | d8 |] %28
w: on _ _ _ _|_ en dan- ger|non cha- loir.|_|
V:3
 z8 | z4 z2 D2 | F2 F2 G2 B2 | A2 G2 A2 A2 | G8 | z2 G2 A4 | B4 A4 | z2 A2 BABc | d2 d2 z4 | %9
w: |Sans|y pen- ser ne|vou- loir le vou-|loir,|con- tre|chan- ger|ne fai- re con- tr'e-|chan- ge,|
 z2 D2 GFGA | BAGF G4 | A4 z2 d2 | B2 G2 cBAG | F2 B2 B2 B2 | A2 B2 d2 d2 | c2 F2 G4 | A2 D2 DEFD | %17
w: ne fai- re con- tre'e-|chan- * * * *|ge, pour|tout plai- sir _ _ _|_ pour tout plai-|sir mon sou- las|on me chan-|ge, et me _ _ _|
 G2 G2 D4 | z4 z2 D2 | F2 F2 G2 B2 | A2 G2 A2 A2 | G3 A B2 B2 | A2 D2 DEFD | G2 G2 D4 | z4 z2 D2 | %25
w: _ mect on,|et|me mect on en|dan- ger non cha-|loir, et me mect|on, et me _ _ _|_ mect on,|et|
 F2 F2 G2 B2 | A2 G2 A2 A2 | G8 |] %28
w: me mect on en|dan- ger non cha-|loir.|
V:4
 z8 | z2 G,,2 G,,A,,B,,C, | D,2 D,2 G,,2 G,2 | F,2 E,2 D,2 D,2 | G,,4 z2 G,2 | F,2 E,2 D,4 | %6
w: |Sans y _ _ _|_ pen- ser ne|vou- loir le vou-|loir, con-|tre chan- ger|
 z2 D,2 D,C,D,E, | F,3 E, D,C,B,,A,, | G,,2 G,2 D,C,D,E, | F,G,A,F, B,3 A, | G,F,E,D, _E,4 | %11
w: ne fai- re con- tr'e-|chan- * * * * *|ge, ne fai- re con- tre'|chan- * * * * *||
 D,4 z2 D,2 | G,2 G,2 F,3 E, | D,C,B,,A,, B,,C,D,E, | F,2 B,,2 B,,2 B,,2 |"^b" C,2 D,2 E,4 | %16
w: ge, pour|tout plai- sir _|_ _ _ _ _ _ _ _|* mon sou- las|on me chan-|
 D,3 E, F,G, A,2- | A,2 G,2 G,2 F,2 | G,2 G,,2 G,,A,,B,,C, | D,2 D,2 G,,2 G,2 | F,2 E,2 D,2 D,2 | %21
w: ge, _ _ _ _|_ et me mect|on, et me _ _ _|_ mect on en|dan- ger non cha-|
 G,,3 F,, G,,A,,B,,C, | D,3 E, F,G, A,2- | A,2 G,2 G,2 F,2 | G,2 G,,2 G,,A,,B,,C, | %25
w: loir, _ _ _ _ _|_ _ _ _ _|* et me mect|on, et me _ _ _|
 D,2 D,2 G,,2 G,2 |"^b" F,2 E,2 D,2 D,2 | G,,8 |] %28
w: _ mect on en|dan- ger non cha-|loir.|

